static/fa/svgs/solid/poo.svg

<svg xmlns="http://www.w3.org/2000/svg" viewBox="0 0 512 512"><!--! Font Awesome Free 6.1.1 by @fontawesome - https://fontawesome.com License - https://fontawesome.com/license/free (Icons: CC BY 4.0, Fonts: SIL OFL 1.1, Code: MIT License) Copyright 2022 Fonticons, Inc.--><path d="M451.4 369.1C468.8 356 480 335.4 480 312c0-39.75-32.25-72-72-72h-14.12C407.3 228.2 416 211.2 416 191.1c0-35.25-28.75-63.1-64-63.1h-5.875C349.8 117.9 352 107.2 352 95.1c0-53-43-96-96-96-5.25 0-10.25.75-15.12 1.5C250.3 14.62 256 30.62 256 47.1c0 44.25-35.75 80-80 80h-16c-35.25 0-64 28.75-64 63.1 0 19.25 8.75 36.25 22.12 48H104c-39.75.9-72 34.1-72 73.8 0 23.38 11.25 44 28.62 57.13C26.25 374.6 0 404.1 0 440c0 39.8 32.25 72 72 72h368c39.75 0 72-32.25 72-72 0-35.9-26.2-65.4-60.6-70.9zM192 256c17.75 0 32 14.25 32 32s-14.25 32-32 32-32-14.2-32-32 14.3-32 32-32zm159.5 139c-11.4 27.9-59.4 53-95.5 53-36.99 0-84.98-25.12-95.48-53-2.02-5.2 1.98-11 7.78-11h175.5c5.7 0 9.7 5.8 7.7 11zM320 320c-17.75 0-32-14.25-32-32s14.25-32 32-32 32 14.25 32 32-14.2 32-32 32z"/></svg>

<svg xmlns="http://www.w3.org/2000/svg" viewBox="0 0 512 512"><!--! Font Awesome Free 6.1.1 by @fontawesome - https://fontawesome.com License - https://fontawesome.com/license/free (Icons: CC BY 4.0, Fonts: SIL OFL 1.1, Code: MIT License) Copyright 2022 Fonticons, Inc. --><path d="M451.4 369.1C468.8 356 480 335.4 480 312c0-39.75-32.25-72-72-72h-14.12C407.3 228.2 416 211.2 416 191.1c0-35.25-28.75-63.1-64-63.1h-5.875C349.8 117.9 352 107.2 352 95.1c0-53-43-96-96-96c-5.25 0-10.25 .75-15.12 1.5C250.3 14.62 256 30.62 256 47.1c0 44.25-35.75 80-80 80H160c-35.25 0-64 28.75-64 63.1c0 19.25 8.75 36.25 22.12 48H104C64.25 239.1 32 272.3 32 312c0 23.38 11.25 44 28.62 57.13C26.25 374.6 0 404.1 0 440C0 479.8 32.25 512 72 512h368c39.75 0 72-32.25 72-72C512 404.1 485.8 374.6 451.4 369.1zM192 256c17.75 0 32 14.25 32 32s-14.25 32-32 32S160 305.8 160 288S174.3 256 192 256zM351.5 395C340.1 422.9 292.1 448 256 448c-36.99 0-84.98-25.12-95.48-53C158.5 389.8 162.5 384 168.3 384h175.5C349.5 384 353.5 389.8 351.5 395zM320 320c-17.75 0-32-14.25-32-32s14.25-32 32-32s32 14.25 32 32S337.8 320 320 320z"/></svg>
